source/img/image_document.svg

<?xml version="1.0" ?><svg height="32px" version="1.1" viewBox="0 0 32 32" width="32px" xmlns="http://www.w3.org/2000/svg" xmlns:sketch="http://www.bohemiancoding.com/sketch/ns" xmlns:xlink="http://www.w3.org/1999/xlink"><title/><desc/><defs/><g fill="none" fill-rule="evenodd" id="Page-1" stroke="none" stroke-width="1"><g fill="#929292" id="icon-65-document-image"><path d="M22,24.0457281 L22,18 L11,18 L11,25 L11,25 L13.5,23 L14.9579388,24.2496618 L18.5930302,21 L22,24.0457281 L22,24.0457281 L22,24.0457281 Z M19.5,3 L9.00276013,3 C7.89666625,3 7,3.89833832 7,5.00732994 L7,27.9926701 C7,29.1012878 7.89092539,30 8.99742191,30 L24.0025781,30 C25.1057238,30 26,29.1017876 26,28.0092049 L26,10.5 L26,10 L20,3 L19.5,3 L19.5,3 L19.5,3 Z M19,4 L8.9955775,4 C8.44573523,4 8,4.45526288 8,4.99545703 L8,28.004543 C8,28.5543187 8.45470893,29 8.9999602,29 L24.0000398,29 C24.5523026,29 25,28.5550537 25,28.0066023 L25,11 L20.9979131,11 C19.8944962,11 19,10.1134452 19,8.99408095 L19,4 L19,4 Z M20,4.5 L20,8.99121523 C20,9.54835167 20.4506511,10 20.9967388,10 L24.6999512,10 L20,4.5 L20,4.5 Z M10,17 L10,27 L23,27 L23,17 L10,17 L10,17 Z M14,21 C14.5522848,21 15,20.5522848 15,20 C15,19.4477152 14.5522848,19 14,19 C13.4477152,19 13,19.4477152 13,20 C13,20.5522848 13.4477152,21 14,21 L14,21 Z" id="document-image"/></g></g></svg>

<svg viewBox="0 0 32 32" xmlns="http://www.w3.org/2000/svg">
  <defs></defs>
  <g fill="none" fill-rule="evenodd">
    <path fill="#929292" d="M 22,24 V 18 H 11 v 7 0 l 2.5,-2 1.5,1 4,-3 z M 9,3 C 8,3 7,4 7,5 v 23 c 0,1 1,2 2,2 h 15 c 1,0 2,-1 2,-2 V 10 L 20,3 Z M 19,4 H 9 C 8.5,4 8,4.5 8,5 v 23 c 0,0.5 0.5,1 1,1 h 15 c 0.5,0 1,-0.5 1,-1 V 11 h -4 c -1,0 -2,-1 -2,-2 z m 1,0.5 V 9 c 0,0.5 0.5,1 1,1 h 4 z M 10,17 V 27 H 23 V 17 Z m 4,4 c 0.5,0 1,-0.5 1,-1 0,-0.5 -0.5,-1 -1,-1 -0.5,0 -1,0.5 -1,1 0,0.5 0.5,1 1,1 z"/>
  </g>
</svg>
